X:250
T:Let that stand there
B:Aird's Airs and Melodies vol 3
M:C
Z:Richard Robinson 
%%TUNEURL: http://www.leeds.ac.uk/music/Info/RRTuneBk/gettune/000001c2.html
%%ID:000001c2
K:D
(B/c/)|\
fABG AFDE| FGAB =c3B/^c/| dABG AFDD| dfec d3:|
A|\
dfed =cBAG| FGAB =c3B/c/| dABG| AFDD| defc d3A|
dfed =cBAG| FGAB =c3B/c/| dB/d/ cA/c/ BG/B/ AF/D/| dfec d3|]
